X:3
T:L\"andler  CGF (parts)
%%MIDI program 21
R:
M:3/4
L:1/8
K:C%%MIDI gchordon
"C".G2 (AG) (AG) | e3ec2 | (Gc e)(G ce) | "G7"f3fB2 | .G2 (AG) (AG) | f3fB2 | (Bd g)(B dg) | "C"e3ec2 | 
.G2 (AG) (AG) | e3ec2 | (Gc e)(G ce) | "G7"f3fB2 | .G2 (AG) (AG) | f3fB2 | gg g2B2 |1 "C"c2z2z2 :|2 "C"c2z2d2 |] [K:G] 
|: "D7"f3ff2 | (fe) (dc) (BA) | "G".B2 (Bd)g2 | z2BB BB | "D7".d2(cd)f2 | z2FF FF | "G"(GB) (GB) D2 | z2 dd dd | "D7"f3ff2 | 
(fe) (dc) (BA) | "G".B2 (Bd)g2 | z2GG GG | "D7"F3ed2 | F3ed2 | "G"G3GG2 |1 G2z2d2 :|2 G2z2"_>Teil A"z2 || [K:C]
"C".G2 (AG) (AG) | e3ec2 | (Gc e)(G ce) | "G7"f3fB2 | .G2 (AG) (AG) | f3fB2 | (Bd g)(B dg) | "C"e3ec2 | 
.G2 (AG) (AG) | e3ec2 | (Gc e)(G ce) | "G7"f3fB2 | .G2 (AG) (AG) | f3fB2 | gg g2B2 |1 "C"c2z2z2 :|2 "C"c2z2d2 |] [K:F] 
cc cc || {/d}"F"c2A2c2 | {/e}"Bb"d2B2d2 | {d}"F"c2A2c2 | z2AA AA | "C7"B2B2E2 | z2BB BB | "F"A2A2F2 | 
z2cc cc | {/d}c2A2c2 | {/e}"Bb"d2B2d2 | {d}"F"c2A2c2 | z2AA AA | "C7"B2B2e2 | e2d2e2 | "F"f3ff2 | f2z2z2 |] 
W:(Parts: ABAC)
% LD09362

